frontend/public/assets/material-icons/csharp.svg

<svg xmlns="http://www.w3.org/2000/svg" viewBox="0 0 32 32"><path d="M30,14V12H28V8H26v4H24V8H22v4H20v2h2v2H20v2h2v4h2V18h2v4h2V18h2V16H28V14Zm-4,2H24V14h2Z" style="fill:#0288d1"/><path d="M13.56348,22A5.56981,5.56981,0,0,1,8,16.43652v-2.873A5.56977,5.56977,0,0,1,13.56348,8H18V2H13.56348A11.56349,11.56349,0,0,0,2,13.56348v2.873A11.56354,11.56354,0,0,0,13.56348,28H18V22Z" style="fill:#0288d1"/></svg>

<svg xmlns="http://www.w3.org/2000/svg" viewBox="0 0 32 32"><path fill="#0288d1" d="M30 14v-2h-2V8h-2v4h-2V8h-2v4h-2v2h2v2h-2v2h2v4h2v-4h2v4h2v-4h2v-2h-2v-2Zm-4 2h-2v-2h2Zm-12.437 6A5.57 5.57 0 0 1 8 16.437v-2.873A5.57 5.57 0 0 1 13.563 8H18V2h-4.437A11.563 11.563 0 0 0 2 13.563v2.873A11.564 11.564 0 0 0 13.563 28H18v-6Z"/></svg>
